
Texture2D depth : PREVIOUS;

float Gamma;

SamplerState linearSampler : IMMUTABLE
{
    Filter = MIN_MAG_MIP_LINEAR;
    AddressU = Clamp;
    AddressV = Clamp;
};

struct psInput
{
	float4 p : SV_Position;
	float2 uv : TEXCOORD0;
};


float4 fog(psInput input) : SV_Target
{
	float4 z = depth.Sample(linearSampler, input.uv);
	return pow(abs(lerp(0, 1, z.r)), Gamma);
}

technique10 Fog
{
	pass P0
	{
		SetPixelShader(CompileShader(ps_4_0,fog()));
	}
}



